markup/src/img/favicon.svg

<svg width="27" height="28" viewBox="0 0 27 28" fill="none" xmlns="http://www.w3.org/2000/svg">
<path d="M12.7646 9.07672C12.8735 8.9133 13.0513 8.81869 13.2462 8.81869C13.4354 8.81869 13.6161 8.9133 13.7221 9.07098C13.7365 9.09105 13.7508 9.11685 13.7623 9.14266L19.9665 19.8882H22.3489L14.1551 5.69079C13.9744 5.35535 13.6247 5.14893 13.2462 5.14893C12.8792 5.14893 12.5381 5.34675 12.3517 5.66499L12.3202 5.71659L4.14062 19.8853H6.5231L12.733 9.13119C12.7416 9.11112 12.7531 9.09392 12.7646 9.07672Z" fill="#539266"/>
<path d="M26.0617 18.9939L16.83 3.00175H16.8329L16.0244 1.60265C15.4538 0.613538 14.3873 0 13.2463 0C12.1052 0 11.0415 0.613538 10.4681 1.60265L10.1528 2.15025L0.4279 18.9939C-0.142633 19.983 -0.142633 21.2129 0.4279 22.1992C0.998433 23.1883 2.06209 23.8018 3.20315 23.8018L5.81499 23.8047L5.96121 23.8018H11.053H11.0989C11.7153 23.8276 12.1969 24.3294 12.1969 24.9429V27.4314H14.2612V24.9429C14.2612 23.174 12.8219 21.7347 11.053 21.7347H3.18309C2.78457 21.7261 2.41473 21.5054 2.21691 21.1642C2.01335 20.8115 2.01335 20.3729 2.21691 20.0203L12.2686 2.61184C12.475 2.27066 12.8506 2.05851 13.2491 2.05851C13.6476 2.05851 14.0232 2.27066 14.2296 2.61184L24.2785 20.0174C24.482 20.37 24.482 20.8087 24.2785 21.1613C24.0806 21.5025 23.7108 21.7233 23.3152 21.7319H19.8432H19.783C19.3759 21.7319 18.9946 21.5111 18.791 21.1585L14.158 13.1309C13.9773 12.7954 13.6276 12.589 13.2491 12.589C12.8821 12.589 12.541 12.7868 12.3546 13.1051L12.3231 13.1567L8.44403 19.874H10.8265L12.7331 16.5827C12.7417 16.5627 12.7531 16.5455 12.7646 16.5283C12.8735 16.3648 13.0513 16.2702 13.2463 16.2702C13.4355 16.2702 13.6161 16.3648 13.7222 16.5225C13.7365 16.5426 13.7508 16.5684 13.7623 16.5942L16.9992 22.202C17.5697 23.1912 18.6333 23.8047 19.7744 23.8047H20.474L20.4711 23.8076H21.9791H22.4694H22.5927H23.2779C24.419 23.8076 25.4826 23.1912 26.0531 22.2049C26.6323 21.2129 26.6323 19.983 26.0617 18.9939Z" fill="#539266"/>
</svg>

<svg width="27" height="28" fill="none" xmlns="http://www.w3.org/2000/svg"><path d="M12.765 9.077a.576.576 0 0 1 .998.066l6.204 10.745h2.382L14.155 5.691a1.031 1.031 0 0 0-1.803-.026l-.032.052-8.18 14.168h2.383l6.21-10.754a.32.32 0 0 1 .032-.054z" fill="#539266"/><path d="M26.062 18.994L16.83 3.002h.003l-.809-1.4A3.217 3.217 0 0 0 13.246 0a3.22 3.22 0 0 0-2.778 1.603l-.315.547L.428 18.994a3.217 3.217 0 0 0 0 3.205 3.212 3.212 0 0 0 2.775 1.603l2.612.003.146-.003H11.1a1.141 1.141 0 0 1 1.098 1.14v2.49h2.064v-2.49a3.212 3.212 0 0 0-3.208-3.207h-7.87a1.153 1.153 0 0 1-.966-.57 1.148 1.148 0 0 1 0-1.145L12.269 2.612c.206-.341.582-.553.98-.553.399 0 .774.212.98.553l10.05 17.405a1.15 1.15 0 0 1 0 1.144 1.152 1.152 0 0 1-.964.57h-3.532a1.15 1.15 0 0 1-.992-.573l-4.633-8.027a1.031 1.031 0 0 0-1.803-.026l-.032.052-3.879 6.717h2.382l1.907-3.291a.573.573 0 0 1 .513-.313.576.576 0 0 1 .516.324L17 22.202a3.212 3.212 0 0 0 2.775 1.603h.7l-.003.003h2.807a3.218 3.218 0 0 0 2.784-4.814z" fill="#539266"/></svg>
